X:1
C:Alan Jabbom'fﬁ‘om N.C.
L:1/8
M:4/4
I:linebreak $
K:G
V:1 treble nm="Voice" snm="Voice"
V:1
 Bc |: d2 g2 edBA | G2 BG DGBG | DFAF AcBA | GABc d2 Bc | d2 gf edBA |$ G2 BG DGBG | DFAF AcBA | %8
 G3 F2 G2 Bc :: [Dd]4 [dg]4 | [Dd]3 [Dd]2 d2 AB | c2 cB [Dc]2 d2 |$ [Dd]3 [D^c]2 [Dd]2 ff | %13
 gfga b2 a2 | [DBg]3 f g2 AB | cBcB AF D2 |1 G3 F2 G2 Bc :|2 G3 G2 A2 z2 :| %18
